X:1
T:Before I met You
M:3/4
L:1/4
K:G
 D| B B B| B A G| G F E| D2 D| G G G| G A B| A3-| A2 B| B B B| B A G|\
 G F E| D2 D| G G G| F G A| G3-| G2 G| c c c| c G3/2 G/2| B B A| G2 D|\
 G G G| G A B| A3-| A2 B| B B B| B A G| G F E| D2 D| G G G| F G A|\
 G3-| G2 z|
